X:1
T:Deilig er jorden
T:Deilig er jorden
T:Iver Holter
C:Iver Holter
%%score [ 1 2 ( 3 4 ) 5 ]
L:1/8
Q:1/4=70
M:4/4
K:E
V:1 treble nm="Soprano"
V:2 treble nm="Alto"
V:3 treble-8 nm="Tenor"
V:4 treble-8 
V:5 bass nm="Bass"
V:1
"^Dolce"!mf! E4 E2 E2 | (F2 D2) E4 | G3 G!<(! G2 G2!<)! |"^cresc." (A2 F2) G4 | (B4 e2) c2 | %5
w: Dei- lig er|jor- * den,|præg- tig er Guds|him- * mel,|skjøn _ er|
 B4 A2 G2 |!>(! A4 G4!>)! |!<(! F8!<)! |"^cresc." B4 c2 B2 | (B2 G2)!>(! A4!>)! | %10
w: sjæ- le- nes|pil- grims-|gang,|gjen- nom de|fag- * re|
!<(! A4 B2 A2!<)! |!>(! (A2 F2) G2!>)! G2 | G2 G2 !>!B3 A |[Q:1/4=60]"^rit." G4 F4 | !fermata!E8 || %15
w: ri- ger på|jor- * den går|vi til pa- ra-|dis med|sang.|
!p! G4 G2 A2 | B4 B4 |!<(! B2 ^B2 c2 =d2!<)! | (c2 B2)!>(! B4!>)! |!p! (E4 c2) e2 | (e2 B4) ^B2 | %21
w: Ti- der skal|kom- me,|ti- der skal hen-|rul- * le,|slægt _ skal|føl- * ge|
 (c2 F2 G2) ^A2 |!>(! (B6 =A2)!>)! |!<(! (G2 A2) B2 c2!<)! | (c4 f2) e2 |!>(! (e2 d2) c2 B2!>)! | %26
w: slæg- * * ters|gang, _|al- * drig for-|stum- * mer|to- * nen fra|
!<(! B4 e2!<)! =d2 | c2 ^E2 G3 A |!>(! B4 A4 | (A2 F2!>)! !fermata!G4) || %30
w: him- len i|sjæ- lens gla- de|pil- grims-|sang. _ _|
!p![Q:1/4=70]"^piu tranquillo" E4 E2 E2 | (F2 D2) E4 | G3 G G2 G2 | (A2 F2)!<(! G4 | %34
w: Eng- le- ne|sang _ den|først for mar- kens|hyr- * der,|
 (B4 e2)!<)! c2 |!>(! (B4 A2) G2!>)! | A4 G4 |!<(! F8!<)! |!<(! !>!B4 c2 B2!<)! | %39
w: skjønt _ fra|sjæl _ til|sjæl det|lød|fred o- ver|
 (B2 G2)!>(! A4!>)! |!<(! (A4 B2) A2!<)! | (!>!A2 F2)!<(! G2 G2!<)! | G2 G2 B3 !tenuto!A | %43
w: jor- * den!|men'- * ske|fryd _ dig! Os|er en e- vig|
 G4 !tenuto!F4 |!>(! !fermata!E8!>)! |] %45
w: frel- ser|fød.|
V:2
!mf! E4 E2 E2 | (F2 D2) E4 | E4!<(! E2 E2!<)! |"^cresc." (F2 D2) E4 | E6 E2 | (E2 ^E2) F2 G2 | %6
w: Dei- lig er|jor- * den,|præg- tig Guds|him- * mel,|skjøn er|sjæ- * le- nes|
!>(! F4 E4!>)! |!<(! (E4 D4)!<)! |"^cresc." ^E4 A2 G2 | (G2 ^E2)!>(! F4!>)! |!<(! D4 G2 F2!<)! | %11
w: pil- grims-|gang, _|gjen- nom de|fag- * re|ri- ger på|
!>(! (F2 D2) E2!>)! E2 | E2 ^E2 !>!G2 F2 | (F2 =E2) (E2 D2) | !fermata!B,8 ||!p! E4 E2 E2 | %16
w: jor- * den går|vi til pa- ra-|dis _ med _|sang.|Ti- der skal|
 (D2 A2) G4 |!<(! G2 F2 D2 E2!<)! | (E2 D2!>(! F2) E2!>)! |!mf! (B,4 E2) C2 |!p! G4 F4 | %21
w: kom- * me,|ti- der skal hen-|rul- * * le,|slægt _ skal|føl- ge|
 (E2 D2)!>(! E4!>)! |!>(! (E2 C2 D4)!>)! | ^E4!<(! G2 G2!<)! | (G2 c2) c4 | B4!>(! A2 F2!>)! | %26
w: slæg- * ters|gang, _ _|al- drig for-|stum- * mer|to- nen fra|
!<(! (F2 A2) G2!<)! ^E2 | ^E2 G2 E2 F2 | =E6!>(! D2 | (D4!>)! !fermata!E4) ||!p! B,4 B,2 B,2 | %31
w: him- * len i|sjæ- lens gla- de|pil- grims-|sang. _|Eng- le- ne|
 B,4 B,4 | E2 E2 E2 E2 | D4!<(! E4 | (G4 A2)!<)! A2 |!>(! (G4 F2) E2!>)! | F4 E4 |!<(! D8!<)! | %38
w: sang den|først for mar- kens|hyr- der,|skjønt _ fra|sjæl _ til|sjæl det|lød|
!<(! (!>!E2 F2) G2 G2!<)! | (G2 ^E2)!>(! F4!>)! |!<(! (F4 D2) F2!<)! | (!>!F2 D2)!<(! E2 E2!<)! | %42
w: fred _ o- ver|jor- * den!|men'- * ske|fryd _ dig! Os|
 E2 E2 ^E2 !tenuto!F2 | =E4 !tenuto!D4 |!>(! !fermata!B,8!>)! |] %45
w: er en e- vig|frel- ser|fød.|
V:3
!mf!!mf! B4 c2 c2 | (c2 B2) B4 | B3 B!<(! ^B2 c2!<)! |"^cresc." (c2 =B2) B4 | B6 c2 | %5
w: Dei- lig er|jor- * den,|præg- tig er Guds|him- * mel,|skjøn er|
 (B2 c2) d2 e2 |!>(! c4 c4!>)! |!<(! (c2 F2 B2 A2)!<)! |"^cresc." (G2 A2) B2 c2 | %9
w: sjæ- * le- nes|pil- grims-|gang, _ _ _|gjen- * nom de|
 (=d4!>(! c2) F2!>)! |!<(! (F2 G2) A2 B2!<)! |!>(! =c4 B2!>)! B2 | B2 B2 !>!=d2 ^c2 | B4 A4 | %14
w: fag- * re|ri- * ger på|jor- den går|vi til pa- ra-|dis med|
 !fermata!G8 ||!p! B4 c2 ^B2 | B4 B4 |!<(! e2 d2 c2 B2!<)! | (B2 A2!>(! G2) B2!>)! | %19
w: sang.|Ti- der skal|kom- me,|ti- der skal hen-|rul- * * le,|
!mf! (B4 e2) c2 |!p! e4 d4 | c4 B4 |!>(! (A4 B4)!>)! | c4!<(! ^e2 e2!<)! | ^e4 f4 | %25
w: slægt _ skal|føl- ge|slæg- ters|gang, _|al- drig for-|stum- mer|
 f4!>(! e2 d2!>)! |!<(! (d2 c2) B2!<)! B2 | B2 c2 =d2 c2 | (e2 B2)!>(! c4 | (c6!>)! !fermata!B2) || %30
w: to- nen fra|him- * len i|sjæ- lens gla- de|pil- * grims-|sang. _|
!p! G4 G2 G2 | A4 G4 | B2 B2 c2 B2 | B4!<(! B4 | (B4 c2)!<)! d2 |!>(! (e2 =d2 c2) B2!>)! | %36
w: Eng- le- ne|sang den|først for mar- kens|hyr- der,|skjønt _ fra|sjæl _ _ til|
 (A2 c2 B2) ^A2 |!<(! B8!<)! |!<(! !>!B4 G2 c2!<)! | =d4!>(! c4!>)! |!<(! B4 F2 B2!<)! | %41
w: sjæl _ _ det|lød|fred o- ver|jor- den!|men- ne- ske|
 !>!B4!<(! B2 B2!<)! | c2 B2 =d2 !tenuto!c2 | B6 !tenuto!A2 |!>(! !fermata!G8!>)! |] %45
w: fryd dig! Os|er en e- vig|frel- ser|fød.|
V:4
 G4 G2 G2 | (F2 A2) G4 | x8 | x8 | x8 | x8 | x8 | x8 | x8 | x8 | x8 | x8 | x8 | x8 | x8 || x8 | %16
 x8 | x8 | x8 | x8 | x8 | x8 | x8 | x8 | x8 | x8 | x8 | x8 | x8 | x8 || x8 | x8 | x8 | x8 | x8 | %35
 x8 | x8 | x8 | x8 | x8 | x8 | x8 | x8 | x8 | x8 |] %45
V:5
!mf! E,4 C,2 B,,2 | (A,,2 B,,2) E,4 | E,4!<(! D,2 C,2!<)! |"^cresc." (A,,2 B,,2) (E,2 F,2) | %4
w: Dei- lig er|jor- * den,|præg- tig Guds|him- * mel, _|
 G,6 A,2 | G,4 F,2 E,2 |!>(! A,,4 ^A,,4!>)! |!<(! B,,8!<)! |"^cresc." C,4 D,2 ^E,2 | %9
w: skjøn er|sjæ- le- nes|pil- grims-|gang,|gje- nom de|
 F,4!>(! F,4!>)! |!<(! B,,4 C,2 D,2!<)! |!>(! E,4 E,2!>)! D,2 | =D,2 C,2 !>!^E,2 F,2 | B,4 B,,4 | %14
w: fag- re|ri- ger på|jor- den går|vi til pa- ra-|dis med|
 !fermata!E,8 ||!mf! E,4!<(! E,2 E,2!<)! | (F,2 D,2)!>(! E,4!>)! |!<(! G,3 G, G,2 G,2!<)! | %18
w: sang.|Ti- der skal|kom- * me,|ti- der skal hen-|
 (A,2 F,2)!>(! G,4!>)! |!p! G,4 A,4 |!mf! (B,4!<(! A,2)!<)! G,2 | A,4!>(! G,4!>)! |!>(! F,8!>)! | %23
w: rul- * le,|slægt skal|føl- * ge|slæg- ters|gang,|
!mf! B,4!<(! C2 B,2!<)! | (!>!B,2 G,2)!>(! A,4!>)! |!mf!!<(! A,4 B,2 A,2!<)! | %26
w: al- drig for-|stum- * mer|to- nen fra|
 (!>!A,2!>(! F,2) G,2 G,2!>)! |!mf!!<(! G,2 G,2 !>!B,3!<)! A, | G,4 F,4 |!>(! !fermata!E,8!>)! || %30
w: him- * len i|sjæ- lens gla- de|pil- grims-|sang.|
!pp! E,4 E,2 E,2 | E,4 E,4 | E,4 E,2 E,2 | E,4 E,4 |!pp! E,6 E,2 | E,6 E,2 | E,4 E,4 | %37
w: Eng- le- ne|sang den|for mar- kens|hyr- der,|skjønt fra|sjæl til|sjæl det|
!<(! (B,,4 B,2 A,2)!<)! |!<(! (!>!G,2 F,2) ^E,3 E,!<)! |!>(! F,6 E,2!>)! | %40
w: lød _ _|fred _ o- ver|jor- den!|
!<(! (D,2 C,2) B,,2 D,2!<)! | !>!E,4!<(! E,2 D,2!<)! | C,2 =D,2 G,,2 !tenuto!A,,2 | %43
w: men- * ne- ske|fryd dig! Os|er en e- vig|
 !tenuto!B,,4 !tenuto!B,,4 |!>(! !fermata![E,,E,]8!>)! |] %45
w: frel- ser|fød.|

